X: 1
T: Thursday Night in the Caley
C: Allan Henderson
R: jig
S: BSFC 2021 Gala Celebration on Zoom 2021-6-6
N: "(Copied from Blazin' Fiddles Tunebook Vol.1)
Z: 2021 John Chambers <jc:trillian.mit.edu>
M: 6/8
L: 1/8
K: C
|:\
"C"EEE cdB | c2E E2D | EEE cde | c3 c2B |
"Am"ABA a2g | aee e2g | "F"aba age |1 g3 edc :|2 ged cAG |
|:\
"C"EEE cdB | c2E E2D | EEE cde | c3 ceg |
"Am"age g2e | dcA cde | "F"dcA "G"GED | C3 "G"G2F :|
|:\
"C"EGc cAG | EGc "F"d2"C"c | EGc "F"dcA | "C"c3 c2B |
"Am"ABA a2g | aee e2g | "F"aba age |1 g3 edc :|2 ged cAG |
|:\
"C"EGc cAG | EGc "F"d2"C"c | EGc "F"dcA | "C"c3 ceg |
"Am"age g2e | dcA cde | "F"dcA "G"GED | "C"C3 "G"G2F :|
